src/cards/Simple_d_10.svg

<?xml version="1.0" encoding="UTF-8" standalone="no"?>
<!-- Created with Inkscape (http://www.inkscape.org/) --><svg height="190.00000" id="svg2" inkscape:version="0.41" sodipodi:docbase="/home/nicu/Desktop/simple" sodipodi:docname="d_10.svg" sodipodi:version="0.32" version="1.0" width="140.00000" x="0.0000000" xmlns="http://www.w3.org/2000/svg" xmlns:cc="http://web.resource.org/cc/" xmlns:dc="http://purl.org/dc/elements/1.1/" xmlns:inkscape="http://www.inkscape.org/namespaces/inkscape" xmlns:rdf="http://www.w3.org/1999/02/22-rdf-syntax-ns#" xmlns:sodipodi="http://inkscape.sourceforge.net/DTD/sodipodi-0.dtd" xmlns:svg="http://www.w3.org/2000/svg" xmlns:xlink="http://www.w3.org/1999/xlink" y="0.0000000">
  <metadata>
    <rdf:RDF xmlns:cc="http://web.resource.org/cc/" xmlns:dc="http://purl.org/dc/elements/1.1/" xmlns:rdf="http://www.w3.org/1999/02/22-rdf-syntax-ns#">
      <cc:Work rdf:about="">
        <dc:title>card</dc:title>
        <dc:description></dc:description>
        <dc:subject>
          <rdf:Bag>
            <rdf:li>card</rdf:li>
            <rdf:li>simple</rdf:li>
          </rdf:Bag>
        </dc:subject>
        <dc:publisher>
          <cc:Agent rdf:about="http://www.openclipart.org/">
            <dc:title>Open Clip Art Library</dc:title>
          </cc:Agent>
        </dc:publisher>
        <dc:creator>
          <cc:Agent>
            <dc:title>Nicu Buculei</dc:title>
          </cc:Agent>
        </dc:creator>
        <dc:rights>
          <cc:Agent>
            <dc:title>Nicu Buculei</dc:title>
          </cc:Agent>
        </dc:rights>
        <dc:date></dc:date>
        <dc:format>image/svg+xml</dc:format>
        <dc:type rdf:resource="http://purl.org/dc/dcmitype/StillImage"/>
        <cc:license rdf:resource="http://web.resource.org/cc/PublicDomain"/>
        <dc:language>en</dc:language>
      </cc:Work>
      <cc:License rdf:about="http://web.resource.org/cc/PublicDomain">
        <cc:permits rdf:resource="http://web.resource.org/cc/Reproduction"/>
        <cc:permits rdf:resource="http://web.resource.org/cc/Distribution"/>
        <cc:permits rdf:resource="http://web.resource.org/cc/DerivativeWorks"/>
      </cc:License>
    </rdf:RDF>
  </metadata>
  <sodipodi:namedview bordercolor="#666666" borderopacity="1.0" id="base" inkscape:current-layer="svg2" inkscape:cx="70.000003" inkscape:cy="95.000001" inkscape:pageopacity="0.0" inkscape:pageshadow="2" inkscape:window-height="791" inkscape:window-width="1152" inkscape:window-x="0" inkscape:window-y="26" inkscape:zoom="1.9105263" pagecolor="#ffffff"/>
  <defs id="defs3">
    <linearGradient id="linearGradient2060">
      <stop id="stop2062" offset="0.0000000" style="stop-color:#ebf0d0;stop-opacity:1.0000000;"/>
      <stop id="stop2064" offset="1.0000000" style="stop-color:#ffffeb;stop-opacity:1.0000000;"/>
    </linearGradient>
    <linearGradient gradientTransform="translate(0.000000,-1.000000)" gradientUnits="userSpaceOnUse" id="linearGradient4853" x1="2.0000000" x2="109.00000" xlink:href="#linearGradient2060" y1="63.099518" y2="128.69501"/>
  </defs>
  <g id="g5630">
    <path d="M 21.000000,5.0000000 L 124.00000,5.0000000 C 132.86400,5.0000000 140.00000,12.136000 140.00000,21.000000 L 140.00000,174.00000 C 140.00000,182.86400 132.86400,190.00000 124.00000,190.00000 L 21.000000,190.00000 C 12.136000,190.00000 5.0000000,182.86400 5.0000000,174.00000 L 5.0000000,21.000000 C 5.0000000,12.136000 12.136000,5.0000000 21.000000,5.0000000 z " id="rect2070" style="fill:#000000;fill-opacity:0.49803922;stroke:none;stroke-width:0.20000000;stroke-miterlimit:4.0000000;stroke-dashoffset:0.0000000;stroke-opacity:1.0000000"/>
    <path d="M 17.000000,1.0000000 L 120.00000,1.0000000 C 128.86400,1.0000000 136.00000,8.1360000 136.00000,17.000000 L 136.00000,170.00000 C 136.00000,178.86400 128.86400,186.00000 120.00000,186.00000 L 17.000000,186.00000 C 8.1360000,186.00000 1.0000000,178.86400 1.0000000,170.00000 L 1.0000000,17.000000 C 1.0000000,8.1360000 8.1360000,1.0000000 17.000000,1.0000000 z " id="rect1300" style="fill:#ffffff;fill-opacity:1.0000000;stroke:none;stroke-width:0.20000000;stroke-miterlimit:4.0000000;stroke-dashoffset:0.0000000;stroke-opacity:1.0000000"/>
    <path d="M 19.000000,3.0000000 L 122.00000,3.0000000 C 130.86400,3.0000000 138.00000,10.136000 138.00000,19.000000 L 138.00000,172.00000 C 138.00000,180.86400 130.86400,188.00000 122.00000,188.00000 L 19.000000,188.00000 C 10.136000,188.00000 3.0000000,180.86400 3.0000000,172.00000 L 3.0000000,19.000000 C 3.0000000,10.136000 10.136000,3.0000000 19.000000,3.0000000 z " id="path5624" style="fill:#c7891f;fill-opacity:1.0000000;stroke:none;stroke-width:0.20000000;stroke-miterlimit:4.0000000;stroke-dashoffset:0.0000000;stroke-opacity:1.0000000"/>
    <path d="M 18.000000,1.9999995 L 121.00000,1.9999995 C 129.86400,1.9999995 137.00000,9.1359995 137.00000,18.000000 L 137.00000,171.00000 C 137.00000,179.86400 129.86400,187.00000 121.00000,187.00000 L 18.000000,187.00000 C 9.1360000,187.00000 2.0000000,179.86400 2.0000000,171.00000 L 2.0000000,18.000000 C 2.0000000,9.1359995 9.1360000,1.9999995 18.000000,1.9999995 z " id="rect1306" style="fill:url(#linearGradient4853);fill-opacity:1.0000000;stroke:none;stroke-width:0.20000000;stroke-miterlimit:4.0000000;stroke-dashoffset:0.0000000;stroke-opacity:1.0000000"/>
  </g>
  <path d="M 11.677030,42.368220 L 11.677030,18.778130 L 6.4400000,18.709360 L 6.6925800,15.086640 L 11.647010,11.998110 L 17.139230,11.998110 L 17.139230,42.368220 M 30.572790,27.146430 C 30.572770,23.395650 30.307580,20.756690 29.777370,19.229560 C 29.257180,17.689070 28.376870,16.918820 27.136330,16.918790 C 25.895860,16.918820 25.010530,17.689070 24.480300,19.229560 C 23.950130,20.756690 23.685010,23.395650 23.685020,27.146430 C 23.685010,30.937430 23.950130,33.609860 24.480300,35.163760 C 25.010530,36.717670 25.895860,37.494620 27.136330,37.494620 C 28.366840,37.494620 29.247200,36.717670 29.777370,35.163760 C 30.307580,33.609860 30.572770,30.937430 30.572790,27.146430 M 36.350000,27.206710 C 36.349970,32.176530 35.549700,36.014400 33.949060,38.720320 C 32.348460,41.412860 30.077490,42.759130 27.136330,42.759130 C 24.185190,42.759130 21.909330,41.412860 20.308700,38.720320 C 18.708070,36.014400 17.907820,32.176530 17.907820,27.206710 C 17.907820,22.223510 18.708070,18.385650 20.308700,15.693090 C 21.909330,12.987180 24.185190,11.634210 27.136330,11.634190 C 30.077490,11.634210 32.348460,12.987180 33.949060,15.693090 C 35.549700,18.385650 36.349970,22.223510 36.350000,27.206710" id="path1698" style="font-size:37.418476;font-style:normal;font-variant:normal;font-weight:bold;font-stretch:normal;fill:#ff0000;fill-opacity:1.0000000;stroke:none;stroke-width:1.0000000px;stroke-linecap:butt;stroke-linejoin:miter;stroke-opacity:1.0000000;font-family:Bitstream Vera Sans;text-anchor:start;writing-mode:lr-tb"/>
  <path d="M 127.20137,146.46508 L 127.20137,170.05517 L 132.43840,170.12394 L 132.18582,173.74666 L 127.23139,176.83519 L 121.73917,176.83519 L 121.73917,146.46508 M 108.30561,161.68687 C 108.30563,165.43765 108.57082,168.07661 109.10103,169.60374 C 109.62122,171.14423 110.50153,171.91448 111.74207,171.91451 C 112.98254,171.91448 113.86787,171.14423 114.39810,169.60374 C 114.92827,168.07661 115.19339,165.43765 115.19338,161.68687 C 115.19339,157.89587 114.92827,155.22344 114.39810,153.66954 C 113.86787,152.11563 112.98254,151.33868 111.74207,151.33868 C 110.51156,151.33868 109.63120,152.11563 109.10103,153.66954 C 108.57082,155.22344 108.30563,157.89587 108.30561,161.68687 M 102.52840,161.62659 C 102.52843,156.65677 103.32870,152.81890 104.92934,150.11298 C 106.52994,147.42044 108.80091,146.07417 111.74207,146.07417 C 114.69321,146.07417 116.96907,147.42044 118.56970,150.11298 C 120.17033,152.81890 120.97058,156.65677 120.97058,161.62659 C 120.97058,166.60979 120.17033,170.44765 118.56970,173.14021 C 116.96907,175.84612 114.69321,177.19909 111.74207,177.19911 C 108.80091,177.19909 106.52994,175.84612 104.92934,173.14021 C 103.32870,170.44765 102.52843,166.60979 102.52840,161.62659" id="path4483" style="font-size:37.418476;font-style:normal;font-variant:normal;font-weight:bold;font-stretch:normal;fill:#ff0000;fill-opacity:1.0000000;stroke:none;stroke-width:1.0000000px;stroke-linecap:butt;stroke-linejoin:miter;stroke-opacity:1.0000000;font-family:Bitstream Vera Sans;text-anchor:start;writing-mode:lr-tb"/>
  <path d="M 20.409554,48.665000 C 16.283706,56.910480 13.275306,61.163050 7.0700000,65.704560 C 12.942392,70.191570 17.082704,74.829030 20.530183,82.325000 C 23.609433,75.203780 27.376592,69.895050 33.920000,65.481900 C 27.338023,62.132990 23.527373,56.828250 20.409554,48.665000 z " id="path1608" style="fill:#ff0000;fill-opacity:1.0000000;fill-rule:evenodd;stroke:none;stroke-width:1.0000000pt;stroke-linecap:butt;stroke-linejoin:round;stroke-opacity:1.0000000"/>
  <path d="M 49.130228,36.220000 C 46.726941,41.065383 44.974562,43.564367 41.360000,46.233150 C 44.780641,48.869900 47.192353,51.595060 49.200494,56.000000 C 50.994143,51.815280 53.188495,48.695650 57.000000,46.102300 C 53.166029,44.134340 50.946343,41.017061 49.130228,36.220000 z " id="path1498" style="fill:#ff0000;fill-opacity:1.0000000;fill-rule:evenodd;stroke:none;stroke-width:1.0000000pt;stroke-linecap:butt;stroke-linejoin:round;stroke-opacity:1.0000000"/>
  <path d="M 90.130230,36.220000 C 87.726950,41.065383 85.974570,43.564367 82.360000,46.233150 C 85.780650,48.869900 88.192360,51.595060 90.200500,56.000000 C 91.994150,51.815280 94.188500,48.695650 98.000000,46.102300 C 94.166030,44.134340 91.946350,41.017061 90.130230,36.220000 z " id="path1500" style="fill:#ff0000;fill-opacity:1.0000000;fill-rule:evenodd;stroke:none;stroke-width:1.0000000pt;stroke-linecap:butt;stroke-linejoin:round;stroke-opacity:1.0000000"/>
  <path d="M 68.770230,50.220000 C 66.366940,55.065383 64.614560,57.564367 61.000000,60.233150 C 64.420640,62.869900 66.832350,65.595060 68.840490,70.000000 C 70.634140,65.815280 72.828500,62.695650 76.640000,60.102300 C 72.806030,58.134340 70.586340,55.017061 68.770230,50.220000 z " id="path1502" style="fill:#ff0000;fill-opacity:1.0000000;fill-rule:evenodd;stroke:none;stroke-width:1.0000000pt;stroke-linecap:butt;stroke-linejoin:round;stroke-opacity:1.0000000"/>
  <path d="M 48.770230,71.220004 C 46.366940,76.065387 44.614560,78.564371 41.000000,81.233154 C 44.420640,83.869904 46.832350,86.595060 48.840490,91.000000 C 50.634140,86.815280 52.828490,83.695654 56.640000,81.102304 C 52.806030,79.134344 50.586340,76.017065 48.770230,71.220004 z " id="path1504" style="fill:#ff0000;fill-opacity:1.0000000;fill-rule:evenodd;stroke:none;stroke-width:1.0000000pt;stroke-linecap:butt;stroke-linejoin:round;stroke-opacity:1.0000000"/>
  <path d="M 88.130230,70.219999 C 85.726940,75.065382 83.974560,77.564366 80.360000,80.233149 C 83.780640,82.869899 86.192350,85.595059 88.200490,90.000000 C 89.994140,85.815279 92.188490,82.695649 96.000000,80.102299 C 92.166030,78.134339 89.946340,75.017060 88.130230,70.219999 z " id="path1506" style="fill:#ff0000;fill-opacity:1.0000000;fill-rule:evenodd;stroke:none;stroke-width:1.0000000pt;stroke-linecap:butt;stroke-linejoin:round;stroke-opacity:1.0000000"/>
  <path d="M 89.770220,100.00000 C 87.366940,104.84539 85.614560,107.34437 82.000000,110.01315 C 85.420640,112.64990 87.832350,115.37506 89.840490,119.78000 C 91.634140,115.59528 93.828490,112.47565 97.640000,109.88230 C 93.806020,107.91434 91.586340,104.79707 89.770220,100.00000 z " id="path1508" style="fill:#ff0000;fill-opacity:1.0000000;fill-rule:evenodd;stroke:none;stroke-width:1.0000000pt;stroke-linecap:butt;stroke-linejoin:round;stroke-opacity:1.0000000"/>
  <path d="M 48.130230,100.00000 C 45.726940,104.84538 43.974570,107.34436 40.360000,110.01315 C 43.780640,112.64990 46.192360,115.37506 48.200500,119.78000 C 49.994150,115.59528 52.188500,112.47565 56.000000,109.88230 C 52.166030,107.91434 49.946350,104.79706 48.130230,100.00000 z " id="path1510" style="fill:#ff0000;fill-opacity:1.0000000;fill-rule:evenodd;stroke:none;stroke-width:1.0000000pt;stroke-linecap:butt;stroke-linejoin:round;stroke-opacity:1.0000000"/>
  <path d="M 49.130230,130.00000 C 46.726940,134.84538 44.974560,137.34437 41.360000,140.01315 C 44.780640,142.64990 47.192350,145.37506 49.200490,149.78000 C 50.994140,145.59528 53.188490,142.47565 57.000000,139.88230 C 53.166030,137.91434 50.946340,134.79706 49.130230,130.00000 z " id="path1512" style="fill:#ff0000;fill-opacity:1.0000000;fill-rule:evenodd;stroke:none;stroke-width:1.0000000pt;stroke-linecap:butt;stroke-linejoin:round;stroke-opacity:1.0000000"/>
  <path d="M 68.130230,117.00000 C 65.726940,121.84539 63.974560,124.34437 60.360000,127.01315 C 63.780640,129.64990 66.192350,132.37506 68.200500,136.78000 C 69.994140,132.59528 72.188500,129.47565 76.000000,126.88230 C 72.166030,124.91434 69.946340,121.79706 68.130230,117.00000 z " id="path1514" style="fill:#ff0000;fill-opacity:1.0000000;fill-rule:evenodd;stroke:none;stroke-width:1.0000000pt;stroke-linecap:butt;stroke-linejoin:round;stroke-opacity:1.0000000"/>
  <path d="M 90.130230,130.22000 C 87.726950,135.06539 85.974570,137.56437 82.360000,140.23315 C 85.780650,142.86990 88.192360,145.59506 90.200500,150.00000 C 91.994150,145.81528 94.188500,142.69565 98.000000,140.10230 C 94.166030,138.13434 91.946350,135.01707 90.130230,130.22000 z " id="path1516" style="fill:#ff0000;fill-opacity:1.0000000;fill-rule:evenodd;stroke:none;stroke-width:1.0000000pt;stroke-linecap:butt;stroke-linejoin:round;stroke-opacity:1.0000000"/>
  <path d="M 118.33956,106.30250 C 114.21371,114.54798 111.20531,118.80055 105.00000,123.34206 C 110.87239,127.82907 115.01271,132.46653 118.46019,139.96250 C 121.53944,132.84128 125.30659,127.53255 131.85000,123.11940 C 125.26803,119.77049 121.45738,114.46575 118.33956,106.30250 z " id="path1518" style="fill:#ff0000;fill-opacity:1.0000000;fill-rule:evenodd;stroke:none;stroke-width:1.0000000pt;stroke-linecap:butt;stroke-linejoin:round;stroke-opacity:1.0000000"/>
</svg>

<?xml version="1.0" encoding="UTF-8" standalone="no"?>
<svg xmlns:rdf="http://www.w3.org/1999/02/22-rdf-syntax-ns#" xmlns="http://www.w3.org/2000/svg" sodipodi:docname="d_10.svg" height="190" sodipodi:version="0.32" width="140" version="1.0" xmlns:xlink="http://www.w3.org/1999/xlink" y="0" x="0" xmlns:cc="http://web.resource.org/cc/" xmlns:dc="http://purl.org/dc/elements/1.1/" sodipodi:docbase="/home/nicu/Desktop/simple" xmlns:sodipodi="http://inkscape.sourceforge.net/DTD/sodipodi-0.dtd">
 <sodipodi:namedview bordercolor="#666666" pagecolor="#ffffff" borderopacity="1.0"/>
 <defs>
  <linearGradient id="a" y2="128.7" gradientUnits="userSpaceOnUse" y1="63.1" gradientTransform="translate(0 -1)" x2="109" x1="2">
   <stop stop-color="#ebf0d0" offset="0"/>
   <stop stop-color="#ffffeb" offset="1"/>
  </linearGradient>
 </defs>
 <path fill-opacity=".49804" d="m21 5h103c8.86 0 16 7.136 16 16v153c0 8.86-7.14 16-16 16h-103c-8.864 0-16-7.14-16-16v-153c0-8.864 7.136-16 16-16z"/>
 <g>
  <path fill="#fff" d="m17 1h103c8.86 0 16 7.136 16 16v153c0 8.86-7.14 16-16 16h-103c-8.864 0-16-7.14-16-16v-153c0-8.864 7.136-16 16-16z"/>
  <path fill="#c7891f" d="m19 3h103c8.86 0 16 7.136 16 16v153c0 8.86-7.14 16-16 16h-103c-8.864 0-16-7.14-16-16v-153c0-8.864 7.136-16 16-16z"/>
  <path fill="url(#a)" d="m18 2h103c8.86 0 16 7.136 16 16v153c0 8.86-7.14 16-16 16h-103c-8.864 0-16-7.14-16-16v-153c0-8.864 7.136-16 16-16z"/>
 </g>
 <g fill="#f00">
  <path d="m11.677 42.368v-23.59l-5.237-.069.2526-3.622 4.9544-3.089h5.492v30.37m13.434-15.222c0-3.75-.265-6.389-.796-7.916-.520-1.541-1.4-2.311-2.641-2.311-1.24 0-2.125.770-2.656 2.311-.530 1.527-.795 4.166-.795 7.916 0 3.791.265 6.464.795 8.018.531 1.554 1.416 2.331 2.656 2.331 1.231 0 2.111-.777 2.641-2.331.531-1.554.796-4.227.796-8.018m5.777.061c0 4.97-0.8 8.807-2.401 11.513-1.601 2.693-3.872 4.039-6.813 4.039-2.951 0-5.227-1.346-6.827-4.039-1.601-2.706-2.401-6.543-2.401-11.513 0-4.983 0.8-8.821 2.401-11.514 1.6-2.706 3.876-4.059 6.827-4.059 2.941 0 5.212 1.353 6.813 4.059 1.601 2.693 2.401 6.531 2.401 11.514"/>
  <path d="m127.2 146.47v23.59l5.24.06-.25 3.63-4.96 3.09h-5.49v-30.37m-13.43 15.22c0 3.75.26 6.39.79 7.91.52 1.54 1.4 2.31 2.64 2.31s2.13-.77 2.66-2.31c.53-1.52.79-4.16.79-7.91 0-3.79-.26-6.47-.79-8.02s-1.42-2.33-2.66-2.33c-1.23 0-2.11.78-2.64 2.33s-.79 4.23-.79 8.02m-5.78-.06c0-4.97.80-8.81 2.4-11.52 1.6-2.69 3.87-4.04 6.81-4.04 2.95 0 5.23 1.35 6.83 4.04 1.6 2.71 2.4 6.55 2.4 11.52 0 4.98-.80 8.82-2.4 11.51-1.6 2.71-3.88 4.06-6.83 4.06-2.94 0-5.21-1.35-6.81-4.06-1.6-2.69-2.4-6.53-2.4-11.51"/>
  <g fill-rule="evenodd">
   <path d="m20.41 48.665c-4.126 8.245-7.135 12.498-13.34 17.04 5.872 4.487 10.013 9.124 13.46 16.62 3.079-7.121 6.847-12.43 13.39-16.843-6.582-3.349-10.393-8.654-13.51-16.817z"/>
   <path d="m49.13 36.22c-2.403 4.845-4.155 7.344-7.77 10.013 3.421 2.637 5.832 5.362 7.84 9.767 1.794-4.185 3.988-7.304 7.8-9.898-3.834-1.968-6.054-5.085-7.87-9.882z"/>
   <path d="m90.13 36.22c-2.403 4.845-4.155 7.344-7.77 10.013 3.421 2.637 5.832 5.362 7.84 9.767 1.794-4.185 3.988-7.304 7.8-9.898-3.834-1.968-6.054-5.085-7.87-9.882z"/>
   <path d="m68.77 50.22c-2.403 4.845-4.155 7.344-7.77 10.013 3.421 2.637 5.832 5.362 7.84 9.767 1.794-4.185 3.988-7.304 7.8-9.898-3.834-1.968-6.054-5.085-7.87-9.882z"/>
   <path d="m48.77 71.22c-2.403 4.845-4.155 7.344-7.77 10.013 3.421 2.637 5.832 5.362 7.84 9.767 1.794-4.185 3.988-7.304 7.8-9.898-3.834-1.968-6.054-5.085-7.87-9.882z"/>
   <path d="m88.13 70.22c-2.403 4.845-4.155 7.344-7.77 10.013 3.421 2.637 5.832 5.362 7.84 9.767 1.794-4.185 3.988-7.304 7.8-9.898-3.834-1.968-6.054-5.085-7.87-9.882z"/>
   <path d="m89.77 100c-2.403 4.85-4.155 7.34-7.77 10.01 3.421 2.64 5.832 5.37 7.84 9.77 1.794-4.18 3.988-7.3 7.8-9.9-3.834-1.97-6.054-5.08-7.87-9.88z"/>
   <path d="m48.13 100c-2.403 4.85-4.155 7.34-7.77 10.01 3.421 2.64 5.832 5.37 7.84 9.77 1.794-4.18 3.988-7.3 7.8-9.9-3.834-1.97-6.054-5.08-7.87-9.88z"/>
   <path d="m49.13 130c-2.403 4.85-4.155 7.34-7.77 10.01 3.421 2.64 5.832 5.37 7.84 9.77 1.794-4.18 3.988-7.3 7.8-9.9-3.834-1.97-6.054-5.08-7.87-9.88z"/>
   <path d="m68.13 117c-2.403 4.85-4.155 7.34-7.77 10.01 3.421 2.64 5.832 5.37 7.84 9.77 1.794-4.18 3.988-7.3 7.8-9.9-3.834-1.97-6.054-5.08-7.87-9.88z"/>
   <path d="m90.13 130.22c-2.403 4.85-4.155 7.34-7.77 10.01 3.421 2.64 5.832 5.37 7.84 9.77 1.794-4.18 3.988-7.3 7.8-9.9-3.834-1.97-6.054-5.08-7.87-9.88z"/>
   <path d="m118.34 106.3c-4.13 8.25-7.13 12.5-13.34 17.04 5.87 4.49 10.01 9.13 13.46 16.62 3.08-7.12 6.85-12.43 13.39-16.84-6.58-3.35-10.39-8.65-13.51-16.82z"/>
  </g>
 </g>
</svg>
